X:1
T:Salva Regina - Aichinger
T:#
%%score { 1 | 2 } 3
L:1/8
Q:1/4=180
M:none
K:F
V:1 treble nm="Soprano I" snm="S"
V:2 treble 
V:3 treble-8 nm="Tenor" snm="T"
V:1
"^Salva Regina""^Gregor Aichinger\n (1564-1628)" d8 G4 A4 | B8 A4 G4 | B4 A4 B4 c4 | d8 B8 | %4
w: Sal- ve Re-|gi- na mi-|se- ri- cor- di-|ae, vi-|
 A4 G4 c8 |[M:4/2] B8 c8- | c4 d4 A4 B4 | (c2 B2 A2 G2 A8) | G4 d4 d4 d4 | B8 A8 | z4 d6 d2 d4 | %11
w: ta, dul- ce-|do, et|* spes no- stra|sal\- * * * *|ve. Ad te cla-|ma- mus|ex- u- les|
 (c8 f8) | e8 d8- | d8 g8 | ^f8 z4 d4 | _e8 d4 B4 | c8 d4 d4 | d8 _e4 d4 | g8 f8 | z16 | f12 e4 | %21
w: fi\- *|li- i|* E-|vae. Ad|te su- spi-|ra- mus ge-|men- tes et|flen- tes||in hac|
 d8 c8 | B8 A8 | G8 F4 f4 | d4 _e8 c4 | (f2 _e2 d2 c2 B4) (A4- | A2 G2 G8) ^F4 | %27
w: la- cry-|ma- rum|val- le, in|hac la- cry-|ma\- * * * * rum|* * * val-|
 G4 (B2 c2 d2 _e2 d4) | G4 B6 c2 d2 _e2 | (f6 _e2 d2 c2 B4- | B4 A4) B8 | z16 | z4 g8 f4 | %33
w: le. E\- * * * *|ia er\- * * *||* * go||ad- vo-|
 e4 d4 e8 | d8 z4 f4- | f4 c4 d8 | A4 A4 c4 d4 | c4 B4 A6 G2 | d8 z8 | z8 z4 B4 | A4 G4 ^F8 | %41
w: ca- ta no-|stra, il\-|* los tu-|os mi- se- ri-|cor- des o- cu-|los|ad|nos con- ver-|
 G8 z4 B4 | c12 =B4 | z4 d4 _e8- | e4 d4 f6 g2 | f4 e4 d4 ^c4 | d4 B4 A8 | A4 d4 c4 B4 | %48
w: te. Et|Je- sum,|et Je\-|* sum be- ne-|di- ctum fru- ctum|ven- tris tu-|i, no- bis post|
 A4 D4 E4 G4 | ^F8 z8 | z4 A4 B4 d4 | c8 B8 | A6 B2 c4 B4 | A8 G8 | z4 d4 _e8 | d8 z4 d4 | g16 | %57
w: hoc ex- i- li-|um,|no- bis post|hoc ex-|i- li- um o-|sten- de.|O cle-|mens, O|pi-|
 ^f8 g4 =f2 e2 | d4 d2 g2 f2 e2 d4 | c4 f4 e2 d2 ^c4 | d2 B2 A2 G2 F4 E2 D2 | %61
w: a, O dul- cis|Vir- go, O dul- cis Vir-|go, O dul- cis Vir-|go, O dul- cis Vir- go Ma-|
 (E2 F2 G6 ^FE !courtesy!^F4) | G8 g4 f2 e2 | d4 d2 g2 f2 e2 d4 | %64
w: ri\- * * * * *|a, O dul- cis|Vir- go, O dul- cis Vir-|
 c4[Q:1/4=178] f4[Q:1/4=176] e2[Q:1/4=174] d2[Q:1/4=172] ^c4 | %65
w: go, O dul- cis Vir-|
[Q:1/4=170] d2[Q:1/4=169] B2[Q:1/4=167] A2[Q:1/4=166] G2[Q:1/4=164] F4[Q:1/4=161] B4 | %66
w: go, O dul- cis Vir- go|
[Q:1/4=158] A4[Q:1/4=155] (G6[Q:1/4=153] ^F[Q:1/4=152]E[Q:1/4=151] !courtesy!^F4) | %67
w: Ma- ri\- * * *|
[Q:1/4=150] G16 |] %68
w: a.|
V:2
 z4 D4 E4 ^F4 | G8 ^F4 G4 | G4 ^F4 G4 E4 | D16 | z4 D4 E4 ^F4 |[M:4/2] G4 D4 A8- | A4 B4 c4 B4 | %7
w: Sal- ve Re-|gi- na mi-|se- ri- cor- di-|ae,|vi- ta, dul-|ce- do, et|* spes no- stra|
 (A2 G2 G8 ^F4) | G8 z4 G4 | G4 G4 F8- | F8 D8 | z4 A6 A2 F4 | G4 A4 B8 | %13
w: sal\- * * *|ve. Ad|te cla- ma\-|* mus|ex- u- les|fi- li- i|
 (A4 d6 ^c=B !courtesy!^c4) | d4 A4 B8 | G4 A4 B8 | A4 F4 F8 | G4 F4 (B8- | B4 A2 G2 A4) B4 | %19
w: E\- * * * *|vae. Ad te|su- spi- ra-|mus ge- men-|tes et flen\-|* * * * tes|
 c12 B4 | A4 G4 F8 | F4 (G6 F2 F4- | F2 ED E4) F8 | z4 c4 A4 B4- | B4 G4 (c2 B2 A2 G2 | %25
w: in hac|la- cry- ma-|rum val\- * *|* * * * le,|in hac la\-|* cry- ma- * * *|
 F4) f4 d6 c2 | B4 A2 G2 A8 | G8 z4 (B2 c2 | d2 _e2 d4) G4 B4- | B2 c2 d2 _e2 f4 d4 | c8 d4 B4- | %31
w: * rum val\- *||le. E\- *|* * * ia, e\-|* * * * * ia|er- go ad\-|
 B4 A4 c4 d4 | (G8 A6 B2 | c4 d8 ^c4) | d4 B8 A4 | A8 B8 | F8 E4 D4 | E4 G4 ^F6 G2 | A4 B4 A4 G4 | %39
w: * vo- ca- ta|no\- * *||stra, il- los|tu- os|mi- se- ri-|cor- des o- cu-|los ad nos con-|
 ^F8 G4 G4 | c4 B4 A8 | G8 z4 d4 | _e12 d4 | z4 B4 c8- | c4 B4 A6 G2 | A4 G4 F4 E4 | D4 G4 ^F8 | %47
w: ver- te, ad|nos con- ver-|te. Et|Je- sum,|et Je\-|* sum be- ne-|di- ctum fru- ctum|ven- tris tu-|
 ^F8 z8 | z4 d4 c4 B4 | A4 D4 E4 G4 | ^F8 G8 | E4 F4 (G2 FE D2 E2 | F2 G2 A2) G2 F4 G4- | %53
w: i,|no- bis post|hoc ex- i- li-|um, post|hoc ex- i\- * * * *|* * * li- um o\-|
 G4 ^F4 G4 D4 | G16 | ^F8 z8 | z4 G4 B8 | A4 d4 c2 B2 A4 | B2 B2 A2 G2 A4 F4 | z4 z2 A2 G2 F2 E4 | %60
w: * sten- de. O|cle-|mens,|O pi-|a, O dul- cis Vir-|go, O dul- cis Vir- go,|O dul- cis Vir-|
 D2 d2 c2 B2 A8 | A4 B4 c8 | B4 d4 c2 B2 A4 | B2 B2 A2 G2 A4 F4 | z4 z2 A2 G2 F2 E4 | %65
w: go, O dul- cis Vir-|go Ma- ri-|a, O dul- cis Vir-|go, O dul- cis Vir- go|O dul- cis Vir-|
 D2 d2 c2 B2 A4 d2 d2 | (c2 B2 B2 AG A8) | =B16 |] %68
w: go, O dul- cis Vir- go Ma-|ri\- * * * * *|a.|
V:3
 z16 | z16 | z16 | z8 G8 | c4 B4 A8 |[M:4/2][K:treble-8] G8 (F8 | f12) g4 | c4 _e4 d8 | G16 | %9
w: |||Vi-|ta, dul- ce-|do, et|* spes|no- stra sal-|ve.|
 z8 z4 d4 | d4 d4 B8 | A8 z4 d4- | d2 d2 c4 d4 e4 | f8 e8 | d8 z4 G4 | c8 B4 G4 | F8 B4 B4 | %17
w: Ad|te cla- ma-|mus ex\-|* u- les fi- li-|i E-|vae. Ad|te su- spi-|ra- mus ge-|
 B8 G8 | _e8 d8 | c8 f8- | f4 e4 d4 c4 | B8 A8 | G8 F4 f4- | f4 e4 f4 d4 | g8 c8 | d16- | d16 | %27
w: men- tes|et flen-|tes in|* hac la- cry-|ma- rum|val- le, in|* hac la- cry-|ma- rum|val\-||
 G16- | G16 | z16 | z8 z4 g4- | g4 f4 e4 d4 | e8 d8 | z16 | z4 g8 d4 | f8 B8 | z4 d4 c4 B4 | %37
w: le.|||Ad\-|* vo- ca- ta|no- stra,||il- los|tu- os|mi- se- ri-|
 A4 G4 d6 _e2 | d4 G4 c4 B4 | A8 G8 | z16 | z8 G8 | c8 G8 | g8 c8 | g8 f6 e2 | f4 c4 d4 A4 | %46
w: cor- des o- cu-|los ad nos con-|ver- te.||Et|Je- sum,|et Je-|sum be- ne-|di- ctum fru- ctum|
 B4 G4 d8 | d4 d4 e4 g4 | ^f8 z8 | d8 c4 B4 | A8 G8 | A6 A2 (G2 A2 B2 c2 | d2 e2 f2 g2 a4) g4 | %53
w: ven- tris tu-|i, no- bis post|hoc,|no- bis post|hoc ex-|i- li- um * * *|* * * * * o-|
 d8 G8 | z4 G4 c8 | d8 G8 | _e8 d8- | d8 z8 | z2 g2 f2 e2 d4 d2 B2 | A2 G2 F4 G4 A4 | B4 c4 d8 | %61
w: sten- de.|O cle-|mens, O|pi- a,||O dul- cis Vir- go, O|dul- cis Vir- go, O|dul- cis Vir-|
 c4 B4 A8 | G8 z8 | z2 g2 f2 e2 d4 d2 B2 | A2 G2 F4 G4 A4 | B4 c4 d8 | f4 g4 d8 | G16 |] %68
w: go Ma- ri-|a,|O dul- cis Vir- go, O|dul- cis Vir- go, O|dul- cis Vir-|go Ma- ri-|a.|

